image/china-off4.svg

<svg width="34" height="34" viewBox="0 0 34 34" fill="none" xmlns="http://www.w3.org/2000/svg">
<path fill-rule="evenodd" clip-rule="evenodd" d="M14.4167 2C13.3941 2 12.4654 2.49792 11.816 3.29155C11.1713 4.07959 10.8333 5.11249 10.8333 6.15741V9.75H4.6C2.38217 9.75 0.5 11.4741 0.5 13.7024V28.4643C0.5 30.6925 2.38217 32.4167 4.6 32.4167H29.4C31.6178 32.4167 33.5 30.6925 33.5 28.4643V13.7024C33.5 11.4741 31.6178 9.75 29.4 9.75H23.1667V6.15741C23.1667 5.11249 22.8287 4.07959 22.184 3.29155C21.5346 2.49792 20.6059 2 19.5833 2H14.4167ZM21.1667 9.75V6.15741C21.1667 5.52753 20.9602 4.95423 20.6361 4.55802C20.3165 4.16739 19.9311 4 19.5833 4H14.4167C14.0689 4 13.6835 4.16739 13.3639 4.55802C13.0398 4.95423 12.8333 5.52753 12.8333 6.15741V9.75H21.1667ZM11.8333 11.75H22.1667H29.4C30.6063 11.75 31.5 12.6695 31.5 13.7024V28.4643C31.5 29.4971 30.6063 30.4167 29.4 30.4167H4.6C3.39366 30.4167 2.5 29.4971 2.5 28.4643V13.7024C2.5 12.6695 3.39366 11.75 4.6 11.75H11.8333ZM26.7721 13.942C27.1493 14.3454 27.1281 14.9782 26.7247 15.3554L14.2924 26.9804C13.908 27.3399 13.3108 27.3399 12.9264 26.9804L7.27534 21.6963C6.87194 21.3191 6.8507 20.6863 7.22791 20.2829C7.60512 19.8795 8.23793 19.8583 8.64133 20.2355L13.6094 24.8809L25.3587 13.8946C25.7621 13.5174 26.3949 13.5386 26.7721 13.942Z" fill="#303134"/>
</svg>

<?xml version="1.0" encoding="UTF-8" standalone="no"?>
<svg width="34" xmlns="http://www.w3.org/2000/svg" fill="none" viewBox="0 0 34 34" height="34">
 <path fill="#303134" clip-rule="evenodd" d="m14.417 2c-1.023 0-1.952 0.4979-2.601 1.2916-0.645 0.788-0.983 1.8209-0.983 2.8658v3.5926h-6.233c-2.2178 0-4.1 1.724-4.1 3.952v14.762c0 2.228 1.8822 3.953 4.1 3.953h24.8c2.218 0 4.1-1.725 4.1-3.953v-14.762c0-2.228-1.882-3.952-4.1-3.952h-6.233v-3.5926c0-1.0449-0.338-2.0778-0.983-2.8658-0.649-0.7937-1.578-1.2916-2.601-1.2916h-5.166zm6.75 7.75v-3.5926c0-0.6299-0.207-1.2032-0.531-1.5994-0.32-0.3906-0.705-0.558-1.053-0.558h-5.166c-0.348 0-0.733 0.1674-1.053 0.558-0.324 0.3962-0.531 0.9695-0.531 1.5994v3.5926h8.334zm-9.334 2h17.567c1.206 0 2.1 0.92 2.1 1.952v14.762c0 1.033-0.894 1.953-2.1 1.953h-24.8c-1.2063 0-2.1-0.92-2.1-1.953v-14.762c0-1.032 0.8937-1.952 2.1-1.952h7.233zm14.939 2.192c0.377 0.403 0.356 1.036-0.047 1.413l-12.433 11.625c-0.384 0.36-0.981 0.36-1.366 0l-5.6507-5.284c-0.4034-0.377-0.4246-1.01-0.0474-1.413s1.01-0.425 1.4134-0.047l4.9677 4.645 11.75-10.986c0.403-0.378 1.036-0.356 1.413 0.047z" fill-rule="evenodd"/>
</svg>
